communes/2067.svg

<?xml version="1.0" encoding="UTF-8" standalone="no"?>
<svg
   xmlns:dc="http://purl.org/dc/elements/1.1/"
   xmlns:cc="http://creativecommons.org/ns#"
   xmlns:rdf="http://www.w3.org/1999/02/22-rdf-syntax-ns#"
   xmlns:svg="http://www.w3.org/2000/svg"
   xmlns="http://www.w3.org/2000/svg"
   xmlns:xlink="http://www.w3.org/1999/xlink"
   xmlns:sodipodi="http://sodipodi.sourceforge.net/DTD/sodipodi-0.dtd"
   xmlns:inkscape="http://www.inkscape.org/namespaces/inkscape"
   version="1.0"
   width="600"
   height="660"
   id="svg2"
   sodipodi:docname="2067.svg">
  <metadata
     id="metadata60">
    <rdf:RDF>
      <cc:Work
         rdf:about="">
        <dc:format>image/svg+xml</dc:format>
        <dc:type
           rdf:resource="http://purl.org/dc/dcmitype/StillImage" />
      </cc:Work>
    </rdf:RDF>
  </metadata>
  <sodipodi:namedview
     pagecolor="#ffffff"
     bordercolor="#666666"
     borderopacity="1"
     objecttolerance="10"
     gridtolerance="10"
     guidetolerance="10"
     inkscape:pageopacity="0"
     inkscape:pageshadow="2"
     inkscape:window-width="640"
     inkscape:window-height="480"
     id="namedview58" />
  <desc
     id="desc4">Flag of Hagenbach</desc>
  <defs
     id="defs6">
    <linearGradient
       id="linearGradient2893">
      <stop
         style="stop-color:white;stop-opacity:0.3137255"
         offset="0"
         id="stop2895" />
      <stop
         style="stop-color:white;stop-opacity:0.25098041"
         offset="0.19"
         id="stop2897" />
      <stop
         style="stop-color:#6b6b6b;stop-opacity:0.1254902"
         offset="0.60000002"
         id="stop2901" />
      <stop
         style="stop-color:black;stop-opacity:0.1254902"
         offset="1"
         id="stop2899" />
    </linearGradient>
    <linearGradient
       id="linearGradient2885">
      <stop
         style="stop-color:white;stop-opacity:1"
         offset="0"
         id="stop2887" />
      <stop
         style="stop-color:white;stop-opacity:1"
         offset="0.22857143"
         id="stop2891" />
      <stop
         style="stop-color:black;stop-opacity:1"
         offset="1"
         id="stop2889" />
    </linearGradient>
    <linearGradient
       id="linearGradient2955">
      <stop
         style="stop-color:#fd0000;stop-opacity:1"
         offset="0"
         id="stop2867" />
      <stop
         style="stop-color:#e77275;stop-opacity:0.65882355"
         offset="0.5"
         id="stop2873" />
      <stop
         style="stop-color:black;stop-opacity:0.32291666"
         offset="1"
         id="stop2959" />
    </linearGradient>
    <radialGradient
       cx="225.52438"
       cy="218.90099"
       r="300"
       fx="225.52438"
       fy="218.90099"
       id="radialGradient2961"
       xlink:href="#linearGradient2955"
       gradientUnits="userSpaceOnUse"
       gradientTransform="matrix(-4.167939e-4,2.182867,-1.884232,-3.599562e-4,615.5972,-289.1214)" />
    <polygon
       points="0,-1 0.58778525,0.80901699 -0.95105652,-0.30901699 0.95105652,-0.30901699 -0.58778525,0.80901699 0,-1 "
       transform="scale(53,53)"
       id="star" />
    <clipPath
       id="clip">
      <path
         d="M 0,-200 L 0,600 L 300,600 L 300,-200 L 0,-200 z "
         id="path10" />
    </clipPath>
    <radialGradient
       cx="225.52438"
       cy="218.90099"
       r="300"
       fx="225.52438"
       fy="218.90099"
       id="radialGradient1911"
       xlink:href="#linearGradient2955"
       gradientUnits="userSpaceOnUse"
       gradientTransform="matrix(-4.167939e-4,2.182867,-1.884232,-3.599562e-4,615.5972,-289.1214)" />
    <radialGradient
       cx="225.52438"
       cy="218.90099"
       r="300"
       fx="225.52438"
       fy="218.90099"
       id="radialGradient2865"
       xlink:href="#linearGradient2955"
       gradientUnits="userSpaceOnUse"
       gradientTransform="matrix(0,1.748721,-1.593162,-1.049767e-7,551.7876,-191.2898)" />
    <radialGradient
       cx="225.52438"
       cy="218.90099"
       r="300"
       fx="225.52438"
       fy="218.90099"
       id="radialGradient2871"
       xlink:href="#linearGradient2955"
       gradientUnits="userSpaceOnUse"
       gradientTransform="matrix(0,1.386237,-1.323286,-5.741131e-8,-158.0823,-109.5408)" />
    <radialGradient
       cx="221.44487"
       cy="226.33101"
       r="300"
       fx="221.44487"
       fy="226.33101"
       id="radialGradient3163"
       xlink:href="#linearGradient2893"
       gradientUnits="userSpaceOnUse"
       gradientTransform="matrix(1.353218,0,0,1.348928,-77.62935,-85.74693)" />
    <radialGradient
       cx="203.19754"
       cy="218.01039"
       r="300"
       fx="203.19754"
       fy="218.01039"
       id="radialGradient2792"
       xlink:href="#linearGradient2893"
       gradientUnits="userSpaceOnUse"
       gradientTransform="matrix(1.360018,0,0,1.355087,-79.52703,-87.64529)" />
    <radialGradient
       cx="203.19754"
       cy="218.01039"
       r="300"
       fx="203.19754"
       fy="218.01039"
       id="radialGradient2883"
       xlink:href="#linearGradient2893"
       gradientUnits="userSpaceOnUse"
       gradientTransform="matrix(1.360018,0,0,1.355087,-77.93978,-87.6453)" />
    <radialGradient
       cx="225.52438"
       cy="218.90099"
       r="300"
       fx="225.52438"
       fy="218.90099"
       id="radialGradient2974"
       xlink:href="#linearGradient2955"
       gradientUnits="userSpaceOnUse"
       gradientTransform="matrix(0,1.386237,-1.323286,-5.741131e-8,-158.0823,-109.5408)" />
    <radialGradient
       cx="225.52438"
       cy="218.90099"
       r="300"
       fx="225.52438"
       fy="218.90099"
       id="radialGradient2972"
       xlink:href="#linearGradient2955"
       gradientUnits="userSpaceOnUse"
       gradientTransform="matrix(0,1.748721,-1.593162,-1.049767e-7,551.7876,-191.2898)" />
    <radialGradient
       cx="225.52438"
       cy="218.90099"
       r="300"
       fx="225.52438"
       fy="218.90099"
       id="radialGradient2970"
       xlink:href="#linearGradient2955"
       gradientUnits="userSpaceOnUse"
       gradientTransform="matrix(-4.167939e-4,2.182867,-1.884232,-3.599562e-4,615.5972,-289.1214)" />
    <clipPath
       id="clipPath2966">
      <path
         d="M 0,-200 L 0,600 L 300,600 L 300,-200 L 0,-200 z "
         id="path2968" />
    </clipPath>
    <polygon
       points="0,-1 0.58778525,0.80901699 -0.95105652,-0.30901699 0.95105652,-0.30901699 -0.58778525,0.80901699 0,-1 "
       transform="scale(53,53)"
       id="polygon2964" />
    <radialGradient
       cx="225.52438"
       cy="218.90099"
       r="300"
       fx="225.52438"
       fy="218.90099"
       id="radialGradient2962"
       xlink:href="#linearGradient2955"
       gradientUnits="userSpaceOnUse"
       gradientTransform="matrix(-4.167939e-4,2.182867,-1.884232,-3.599562e-4,615.5972,-289.1214)" />
    <linearGradient
       id="linearGradient2954">
      <stop
         style="stop-color:#fd0000;stop-opacity:1"
         offset="0"
         id="stop2956" />
      <stop
         style="stop-color:#e77275;stop-opacity:0.65882355"
         offset="0.5"
         id="stop2958" />
      <stop
         style="stop-color:black;stop-opacity:0.32291666"
         offset="1"
         id="stop2960" />
    </linearGradient>
    <linearGradient
       id="linearGradient2946">
      <stop
         style="stop-color:white;stop-opacity:1"
         offset="0"
         id="stop2948" />
      <stop
         style="stop-color:white;stop-opacity:1"
         offset="0.22857143"
         id="stop2950" />
      <stop
         style="stop-color:black;stop-opacity:1"
         offset="1"
         id="stop2952" />
    </linearGradient>
    <linearGradient
       id="linearGradient2936">
      <stop
         style="stop-color:white;stop-opacity:1"
         offset="0"
         id="stop2938" />
      <stop
         style="stop-color:white;stop-opacity:1"
         offset="0.2"
         id="stop2940" />
      <stop
         style="stop-color:black;stop-opacity:0.74509805"
         offset="0.60000002"
         id="stop2942" />
      <stop
         style="stop-color:black;stop-opacity:0.90196079"
         offset="1"
         id="stop2944" />
    </linearGradient>
  </defs>
  <g
     style="display:inline"
     id="layer3">
    <path
       d="M 300,658.5 C 300,658.5 598.50001,546.17969 598.50001,260.72817 C 598.50001,-24.723354 598.50001,2.1764765 598.50001,2.1764765 L 1.5,2.1764765 L 1.5,260.72817 C 1.5,546.17969 300,658.5 300,658.5 z "
       style="fill:#fcef3c;fill-opacity:1;fill-rule:evenodd;stroke:none;stroke-width:1px;stroke-linecap:butt;stroke-linejoin:miter;stroke-opacity:1"
       id="path2855" />
  </g>
  <g
     style="opacity:1"
     id="layer4">
    <g
       transform="translate(828.1875,23.8125)"
       id="g2978">
      <g
         transform="translate(-182.875,26.5)"
         style="display:inline"
         id="g2984" />
    </g>
    <path
       d="M 200.83087,2.4925853 L 200.83087,200.50587 L 399.16913,200.50587 L 399.16913,2.4925853 L 200.83087,2.4925853 z M 399.16913,200.50587 L 399.16913,399.2022 L 571.56849,399.2022 C 587.67516,358.45026 597.50741,312.3395 597.50741,260.51838 C 597.50741,194.2587 597.50741,237.2991 597.50741,200.50587 L 399.16913,200.50587 z M 399.16913,399.2022 L 200.83087,399.2022 L 200.83087,603.64209 C 255.44479,640.7233 300,657.50741 300,657.50741 C 300,657.50741 344.55521,640.7233 399.16913,603.64209 L 399.16913,399.2022 z M 200.83087,399.2022 L 200.83087,200.50587 L 2.4925861,200.50587 L 2.4925861,260.51838 C 2.4925861,312.3395 12.32485,358.45026 28.431514,399.2022 L 200.83087,399.2022 z "
       style="opacity:1;fill:#2b5df2;fill-opacity:1;fill-rule:evenodd;stroke:black;stroke-width:1.98517203;stroke-linecap:butt;stroke-linejoin:miter;stroke-miterlimit:4;stroke-dasharray:none;stroke-opacity:1;display:inline"
       id="path2799" />
  </g>
  <g
     id="layer2">
    <path
       d="M 300.00001,658.5 C 300.00001,658.5 598.50001,546.17969 598.50001,260.72817 C 598.50001,-24.723334 598.50001,2.1764865 598.50001,2.1764865 L 1.5,2.1764865 L 1.5,260.72817 C 1.5,546.17969 300.00001,658.5 300.00001,658.5 z "
       style="opacity:1;fill:url(#radialGradient3163);fill-opacity:1;fill-rule:evenodd;stroke:none;stroke-width:1px;stroke-linecap:butt;stroke-linejoin:miter;stroke-opacity:1"
       id="path2875" />
  </g>
  <g
     id="layer1">
    <path
       d="M 299.99999,658.50028 C 299.99999,658.50028 1.5,546.17992 1.5,260.72828 C 1.5,-24.723336 1.5,2.1764957 1.5,2.1764957 L 598.49999,2.1764957 L 598.49999,260.72828 C 598.49999,546.17992 299.99999,658.50028 299.99999,658.50028 z "
       style="opacity:1;fill:none;fill-opacity:1;fill-rule:evenodd;stroke:black;stroke-width:3.00000048;stroke-linecap:butt;stroke-linejoin:miter;stroke-miterlimit:4;stroke-dasharray:none;stroke-opacity:1"
       id="path1411" />
  </g>
</svg>

<?xml version="1.0" encoding="UTF-8"?>
<svg version="1.0" viewBox="0 0 600 660" xmlns="http://www.w3.org/2000/svg" xmlns:cc="http://creativecommons.org/ns#" xmlns:dc="http://purl.org/dc/elements/1.1/" xmlns:rdf="http://www.w3.org/1999/02/22-rdf-syntax-ns#" xmlns:xlink="http://www.w3.org/1999/xlink">
<metadata>
<rdf:RDF>
<cc:Work rdf:about="">
<dc:format>image/svg+xml</dc:format>
<dc:type rdf:resource="http://purl.org/dc/dcmitype/StillImage"/>
</cc:Work>
</rdf:RDF>
</metadata>
<desc>Flag of Hagenbach</desc>
<defs>
<radialGradient id="a" cx="221.44" cy="226.33" r="300" gradientTransform="matrix(1.3532 0 0 1.3489 -77.629 -85.747)" gradientUnits="userSpaceOnUse">
<stop stop-color="#fff" stop-opacity=".31373" offset="0"/>
<stop stop-color="#fff" stop-opacity=".25098" offset=".19"/>
<stop stop-color="#6b6b6b" stop-opacity=".12549" offset=".6"/>
<stop stop-opacity=".12549" offset="1"/>
</radialGradient>
</defs>
<g>
<path d="m300 658.5s298.5-112.32 298.5-397.77v-258.55h-597v258.55c0 285.45 298.5 397.77 298.5 397.77z" fill="#fcef3c" fill-rule="evenodd"/>
</g>
<g>
<g transform="translate(828.19 23.812)"></g>
<path d="m200.83 2.4926v198.01h198.34v-198.01h-198.34zm198.34 198.01v198.7h172.4c16.107-40.752 25.939-86.863 25.939-138.68v-60.013h-198.34zm0 198.7h-198.34v204.44c54.614 37.081 99.169 53.865 99.169 53.865s44.555-16.784 99.169-53.865v-204.44zm-198.34 0v-198.7h-198.34v60.013c0 51.821 9.8323 97.932 25.939 138.68h172.4z" fill="#2b5df2" fill-rule="evenodd" stroke="#000" stroke-width="1.9852"/>
</g>
<path d="m300 658.5s298.5-112.32 298.5-397.77v-258.55h-597v258.55c0 285.45 298.5 397.77 298.5 397.77z" fill="url(#a)" fill-rule="evenodd"/>
<path d="m300 658.5s-298.5-112.32-298.5-397.77v-258.55h597v258.55c0 285.45-298.5 397.77-298.5 397.77z" fill="none" stroke="#000" stroke-width="3"/>
</svg>
